X: 10
T: Sunlight on the River [F#m]
C:Len Bittenson  2015
Q:1/4=180
M:3/4
K:F#m
F2G2|:"F#m"A6 | "Bm"B6 | "A"c2 B2 A2 | "D"F4 EF |"E"G4A2 | "Bm"B4 A2 |"C#"G6-|G2 F2 G2|
"A" A6|"Bm"B6|"C#m"c2 B2 A2|"D" F4 EF|"E" G3 A B2|"D" A2 G2 E2|1 "F#m" F6-|F2 F2 G2:|2 "F#m" F6-| F2 B2 c2||
"D"f6| "E"g3 a g2| "Bm"f4 e2| "A" c4 c2|"G" d3 e d2|d2 c2 B2| "F#7"c6-| c2 f2 g2|
"A" a6|"Bm" b3 a b2|"F#m"a2 g2 f2|"A" e4 c2|"G" d3 c B2|"E" A2 G2 E2|1 "F#m"F6-| F2 B2c2:|2 "F#m"F6-|F6|]

%%sep 1 1 500

